src/assets/images/home-insurance-robo.svg

<?xml version="1.0" encoding="UTF-8"?>
<svg width="238px" height="315px" viewBox="0 0 238 315" version="1.1" xmlns="http://www.w3.org/2000/svg" xmlns:xlink="http://www.w3.org/1999/xlink">
    <!-- Generator: sketchtool 51.2 (57519) - http://www.bohemiancoding.com/sketch -->
    <title>8CFF2041-E55C-4DA7-9E35-A84A632460D1</title>
    <desc>Created with sketchtool.</desc>
    <defs>
        <polygon id="path-1" points="0.339734683 0.380989129 47.8125155 0.380989129 47.8125155 43.9127683 0.339734683 43.9127683"></polygon>
        <polygon id="path-3" points="0.328346843 0.225638117 82.7617003 0.225638117 82.7617003 79.7456104 0.328346843 79.7456104"></polygon>
        <polygon id="path-5" points="0.394593532 0.222631942 50.3940905 0.222631942 50.3940905 61.5041338 0.394593532 61.5041338"></polygon>
        <polygon id="path-7" points="0.316471817 0.222716448 38.6139617 0.222716448 38.6139617 61.5041338 0.316471817 61.5041338"></polygon>
        <polygon id="path-9" points="0.294140001 0.36958846 55.9434835 0.36958846 55.9434835 72.0674258 0.294140001 72.0674258"></polygon>
        <polygon id="path-11" points="0.111122121 0.36958846 47.529177 0.36958846 47.529177 72.0674258 0.111122121 72.0674258"></polygon>
    </defs>
    <g id="Symbols" stroke="none" stroke-width="1" fill="none" fill-rule="evenodd">
        <g id="new" transform="translate(-174.000000, -47.000000)">
            <g id="insurance_img" transform="translate(68.000000, 47.000000)">
                <g id="Group-8" transform="translate(106.000000, 0.000000)">
                    <g id="Group-12" transform="translate(190.000000, 271.000000)">
                        <mask id="mask-2" fill="white">
                            <use xlink:href="#path-1"></use>
                        </mask>
                        <g id="Clip-11"></g>
                        <path d="M44.8952245,35.0694552 C49.1870069,30.2023844 48.6843427,22.8097121 43.7716723,18.5573982 C41.6053684,16.6811047 38.8215785,15.6538413 35.9442301,15.6673247 C35.7303215,15.6673247 35.5308718,15.7191513 35.3195147,15.7284212 C35.7167129,14.5722232 35.9276448,13.3608278 35.9442301,12.1397412 C35.9442301,5.64539764 30.6305341,0.380989129 24.0759124,0.380989129 C17.5217161,0.380989129 12.20802,5.64539764 12.20802,12.1397412 C12.2246054,13.3608278 12.4355372,14.5722232 12.8318849,15.7284212 C12.6209531,15.7284212 12.4219287,15.6673247 12.20802,15.6673247 C5.68529331,15.6365658 0.372022514,20.8508331 0.34012758,27.313575 C0.326519074,30.1644625 1.36374234,32.9226519 3.25702564,35.0694552 C-0.813618512,39.6664375 -0.600135084,46.601097 3.7460813,50.9440023 C-0.84211132,55.581856 -0.766839275,63.0271977 3.91406129,67.573196 C6.12927079,69.7242129 9.10613133,70.9305521 12.20802,70.9343443 L35.9442301,70.9343443 C42.4984265,70.9271813 47.8065941,65.6564524 47.7985141,59.1621089 C47.7946867,56.088746 46.5771507,53.1388401 44.4061689,50.9440023 C48.7523852,46.601097 48.9658687,39.6664375 44.8952245,35.0694552" id="Fill-10" fill="#005960" mask="url(#mask-2)"></path>
                    </g>
                    <g id="Group-15" transform="translate(112.000000, 232.000000)">
                        <mask id="mask-4" fill="white">
                            <use xlink:href="#path-3"></use>
                        </mask>
                        <g id="Clip-14"></g>
                        <path d="M77.6957856,63.5911641 C85.1485891,54.7006365 84.2752715,41.196206 75.745623,33.4280834 C71.9830385,30.0012983 67.1497766,28.1246234 62.1528704,28.1494801 C61.7819982,28.1494801 61.435796,28.2437638 61.0690356,28.2613348 C61.7581506,26.1485221 62.1240887,23.9367114 62.1528704,21.7056154 C62.1528704,9.84215037 52.9262946,0.225638117 41.5447954,0.225638117 C30.1632961,0.225638117 20.9367204,9.84215037 20.9367204,21.7056154 C20.965502,23.9367114 21.3314402,26.1485221 22.0209664,28.2613348 C21.6537947,28.2613348 21.3075925,28.1494801 20.9367204,28.1494801 C9.60990626,28.0929098 0.38415284,37.6177097 0.329878865,49.4233188 C0.305620043,54.631638 2.10652921,59.6698179 5.39421637,63.5911641 C-1.67455771,71.9888448 -1.30368555,84.6558644 6.24368631,92.5889834 C-1.72348652,101.060805 -1.59314675,114.660805 6.53479217,122.96506 C10.3812546,126.894548 15.5508507,129.098645 20.9367204,129.105073 L62.1528704,129.105073 C73.5343696,129.091788 82.7506662,119.463705 82.7375089,107.600239 C82.7309302,101.9865 80.6167122,96.5986135 76.8467268,92.5889834 C84.3936875,84.6558644 84.7645596,71.9888448 77.6957856,63.5911641" id="Fill-13" fill="#005960" mask="url(#mask-4)"></path>
                    </g>
                    <g id="Group-44" transform="translate(109.000000, 111.000000)">
                        <path d="M73.1303648,31.8089081 L93.6478184,45.3125587 L87.3153379,61.6811179 C87.2243792,61.9119279 87.1058825,62.1271541 87.0044927,62.3516463 C86.5542887,62.3234268 86.1036674,62.2960497 85.6467875,62.2960497 C85.5725185,62.2960497 85.5007529,62.3044734 85.4248148,62.3044734 C85.352632,62.3044734 85.2829526,62.2960497 85.211187,62.2960497 C79.7186145,62.2960497 74.9983568,65.7072367 72.1323221,70.2977451 C68.8114938,70.0458757 65.5102758,69.2325652 62.4477202,67.7613618 C60.3606762,66.7580963 58.5415015,65.5665605 57.8839282,64.2726765 C55.6884013,52.6631002 73.1303648,31.8089081 73.1303648,31.8089081" id="Fill-16" fill="#FAB08A"></path>
                        <path d="M47.0323841,36.0425454 C47.0323841,36.0425454 44.5197533,60.0821687 49.5767253,75.3893386 C47.228905,77.4497815 38.606601,86.777371 35.8949459,74.6846941 C33.1837079,62.5924384 38.9387256,31.8087818 38.9387256,31.8087818 L47.0323841,36.0425454 Z" id="Fill-18" fill="#FAB08A"></path>
                        <polygon id="Fill-20" fill="#1C2C57" points="59.3434821 34.3409532 64.169302 37.4749997 62.4477619 41.113206 57.2664519 38.8093175"></polygon>
                        <path d="M62.1859426,38.7156878 C61.7015248,39.8280406 61.6677282,40.8869027 62.1095874,41.0831754 C62.5493603,41.2773423 63.2983096,40.5343698 63.7823102,39.4224383 C64.266728,38.3100855 64.3005246,37.2491175 63.8607516,37.0549507 C63.4188925,36.8582567 62.6699432,37.6033351 62.1859426,38.7156878" id="Fill-22" fill="#1C2C57"></path>
                        <path d="M1.09379966,16.6104042 C1.09129621,16.5636526 1.08086516,16.5185857 1.07669274,16.471834 C1.98419389,14.384014 3.5851511,11.0663303 5.74437797,8.01525754 C9.23210308,3.08569431 10.2280595,0.619649131 10.2280595,0.619649131 L60.0792882,33.5551461 L56.8519221,39.7061493 L1.08921,18.9033419 C1.14011351,18.1346771 1.15471698,17.3685394 1.09379966,16.6104042" id="Fill-24" fill="#004060"></path>
                        <polygon id="Fill-26" fill="#F79C82" points="77.6564798 70.308359 79.4502028 81.6104693 63.5879172 81.6104693 62.4480123 67.761446"></polygon>
                        <path d="M36.6922117,98.3526206 C36.6922117,98.3526206 17.9559638,92.3279733 12.0849529,84.2302475 C6.21185581,76.1299946 16.1501408,31.8089924 16.1501408,31.8089924 L14.8658702,23.8308834 C14.14279,19.3410386 17.5541598,15.2572172 22.0612069,15.2163622 L27.0672753,15.1717164 C29.1505642,15.1523419 30.5545832,17.315133 29.7088339,19.2365844 L23.1247566,34.1895367 C23.1247566,34.1895367 18.1846124,67.761446 25.1049867,70.308359 C33.3571971,73.2760369 42.6988262,73.9907899 42.6988262,73.9907899 L36.6922117,98.3526206 Z" id="Fill-28" fill="#FAB08A"></path>
                        <path d="M71.8912815,70.308359 L76.71126,59.518411 L73.579025,57.5329393 C71.2670876,56.0663689 70.2565277,53.1884037 71.1360736,50.5791552 L73.8026667,42.6747538 C74.1898672,41.5274426 73.5840319,40.2702018 72.4420408,39.8945038 C69.5881062,38.9552585 64.8937174,36.431932 65.1002522,30.0223205 C65.1002522,27.2155357 67.3721344,26.0656974 69.2180126,25.5948112 C70.3082657,25.3164071 71.4389913,25.2452267 72.5601203,25.3408359 C74.829499,25.5345816 80.3704715,26.1785753 83.6558343,28.0208437 C86.9503764,29.8685876 89.0645412,30.6241956 93.8190127,39.001589 C97.0167547,44.6357968 95.6144047,53.4592264 92.8314011,60.0823793 C90.33546,66.0152081 83.9670968,69.3307858 77.6563129,70.308359 L71.8912815,70.308359 Z" id="Fill-30" fill="#083B5E"></path>
                        <path d="M79.3038343,54.4929015 C79.8771247,56.1919667 78.7163577,58.4423645 76.7110931,59.5184952 C74.7041595,60.5942048 72.6125258,60.0862542 72.0392355,58.3867679 C71.4638589,56.6877028 72.6250431,54.437305 74.6323939,53.3611742 C76.6368241,52.2854647 78.728875,52.7934152 79.3038343,54.4929015" id="Fill-34" fill="#FAB08A"></path>
                        <path d="M45.4502028,160.948934 L90.9425053,160.948934 L90.9425053,102.031303 C90.9425053,89.1257368 81.2095033,78.3421066 68.4819561,77.1421471 L36.8445884,73.276079 C36.8445884,73.276079 33.1244596,79.0252706 22.7589189,92.381506 C35.2181795,100.150285 49.6355564,103.730368 49.6355564,103.730368 L45.4502028,160.948934 Z" id="Fill-36" fill="#CDEAE6"></path>
                        <path d="M8.73087038,11.1493883 C6.28374659,16.2731183 2.96333548,19.7765451 1.31356098,18.9758702 C-0.33412732,18.1735105 0.31301488,13.367776 2.76013867,8.24573063 C5.20726246,3.12200056 8.52558736,-0.381426219 10.1749446,0.419248739 C11.8247191,1.22202963 11.1754907,6.02565819 8.73087038,11.1493883" id="Fill-40" fill="#00C9C3"></path>
                        <path d="M48.9992207,26.2347615 L48.5761374,26.4373521 C47.0936769,27.1567381 45.39133,27.2637194 43.8300107,26.7385002 L43.5487897,26.6449969 C40.9815002,25.7803016 38.9766529,23.7282825 38.155938,21.123667 C37.7900169,19.9666686 38.7968216,18.841259 39.9746955,19.0889165 L43.1261236,19.757339 C44.3544838,20.0176321 45.4288817,20.7563927 46.1185826,21.815676 L48.9992207,26.2347615 Z" id="Fill-42" fill="#FAB08A"></path>
                    </g>
                    <g id="Group-57" transform="translate(127.000000, 234.000000)">
                        <g id="Group-47" transform="translate(38.189149, 10.563292)">
                            <mask id="mask-6" fill="white">
                                <use xlink:href="#path-5"></use>
                            </mask>
                            <g id="Clip-46"></g>
                            <path d="M0.394593532,55.9292085 C0.394593532,55.9292085 6.60821712,11.2583143 35.8498975,0.222631942 C64.4004374,24.9812982 42.1120878,61.5894429 42.1120878,61.5894429 L10.6077003,84.5713635 L0.394593532,55.9292085 Z" id="Fill-45" fill="#59C09C" mask="url(#mask-6)"></path>
                        </g>
                        <g id="Group-50" transform="translate(48.151536, 10.563292)">
                            <mask id="mask-8" fill="white">
                                <use xlink:href="#path-7"></use>
                            </mask>
                            <g id="Clip-49"></g>
                            <path d="M0.830780029,24.4996966 L13.4211613,39.8621034 L25.2012684,0.49736204 C25.4299882,0.406095197 25.6566325,0.310180506 25.8874278,0.222716448 C26.0003349,0.320321266 26.1049399,0.419616211 26.2157715,0.517221029 L19.9062599,21.6007068 L36.532238,13.9169682 C36.607371,14.0758401 36.6779379,14.2351345 36.7514105,14.3940064 L36.9411109,14.8186508 L19.5276892,22.8661891 L9.01280519,58.0018109 L38.6139617,45.4631834 C38.5093567,45.872194 38.4026761,46.2778244 38.2922596,46.6754267 L8.64378178,59.2339133 L1.17697297,84.1827189 L0.645230577,84.571448 L0.316471817,83.6494839 L13.0807798,40.9982911 L0.334321093,25.4444775 C0.497455175,25.1292688 0.663079853,24.8144827 0.830780029,24.4996966" id="Fill-48" fill="#006769" mask="url(#mask-8)"></path>
                        </g>
                        <g id="Group-53">
                            <mask id="mask-10" fill="white">
                                <use xlink:href="#path-9"></use>
                            </mask>
                            <g id="Clip-52"></g>
                            <path d="M12.906355,75.4036091 C12.906355,75.4036091 -13.1141537,30.654124 9.59427649,0.36958846 C71.4229237,18.7049282 53.5425151,80.5525802 53.5425151,80.5525802 L12.906355,75.4036091 Z" id="Fill-51" fill="#004966" mask="url(#mask-10)"></path>
                        </g>
                        <g id="Group-56" transform="translate(0.415099, 0.000000)">
                            <mask id="mask-12" fill="white">
                                <use xlink:href="#path-11"></use>
                            </mask>
                            <g id="Clip-55"></g>
                            <path d="M9.1789695,0.36958846 C9.39399101,0.433390744 9.60361623,0.499728217 9.81780754,0.564375564 L26.5645796,59.4154329 L46.886188,27.2865466 C47.1053605,27.6495013 47.3191367,28.0128785 47.529177,28.3779459 L26.9784337,60.8693644 L31.8106063,77.8513352 L30.5997613,77.6983787 L20.9661333,43.844718 L20.9661333,43.8451405 L0.22402917,37.1518162 C0.182519226,36.741538 0.144745176,36.3304146 0.111122121,35.9180237 L20.5917136,42.5259966 L8.76096436,0.949724456 C8.90085287,0.756627478 9.03409979,0.561840374 9.1789695,0.36958846" id="Fill-54" fill="#59C09C" mask="url(#mask-12)"></path>
                        </g>
                    </g>
                    <polygon id="Fill-60" fill="#00756F" points="112 315 238 315 238 306 112 306"></polygon>
                    <path d="M11.6713576,28.6213968 L1.37860319,18.3286424 C-0.459534397,16.4905048 -0.459534397,13.5094952 1.37860319,11.6713576 L11.6713576,1.37860319 C13.5094952,-0.459534397 16.4905048,-0.459534397 18.3286424,1.37860319 L28.6213968,11.6713576 C30.4595344,13.5094952 30.4595344,16.4905048 28.6213968,18.3286424 L18.3286424,28.6213968 C16.4905048,30.4595344 13.5094952,30.4595344 11.6713576,28.6213968" id="Fill-3" fill="#009792"></path>
                    <path d="M168.265111,95 L147.7345,95 C141.805889,95 137,90.1941111 137,84.2651111 L137,63.7348889 C137,57.8058889 141.805889,53 147.7345,53 L168.265111,53 C174.193722,53 179,57.8058889 179,63.7348889 L179,84.2651111 C179,90.1941111 174.193722,95 168.265111,95" id="Fill-5" fill="#00C9C3"></path>
                    <path d="M76,94.5 C76,88.1489333 81.1489333,83 87.5,83 C93.8510667,83 99,88.1489333 99,94.5 C99,100.851067 93.8510667,106 87.5,106 C81.1489333,106 76,100.851067 76,94.5" id="Fill-11" fill="#009792"></path>
                </g>
            </g>
        </g>
    </g>
</svg>

<?xml version="1.0" encoding="UTF-8"?>
<svg version="1.1" viewBox="0 0 238 315" xmlns="http://www.w3.org/2000/svg" xmlns:xlink="http://www.w3.org/1999/xlink" width="238px" height="315px">
<title>8CFF2041-E55C-4DA7-9E35-A84A632460D1</title>
<desc>Created with sketchtool.</desc>
<defs>
<polygon id="f" points="0.33973 0.38099 47.813 0.38099 47.813 43.913 0.33973 43.913"/>
<polygon id="d" points="0.32835 0.22564 82.762 0.22564 82.762 79.746 0.32835 79.746"/>
<polygon id="c" points="0.39459 0.22263 50.394 0.22263 50.394 61.504 0.39459 61.504"/>
<polygon id="b" points="0.31647 0.22272 38.614 0.22272 38.614 61.504 0.31647 61.504"/>
<polygon id="a" points="0.29414 0.36959 55.943 0.36959 55.943 72.067 0.29414 72.067"/>
<polygon id="e" points="0.11112 0.36959 47.529 0.36959 47.529 72.067 0.11112 72.067"/>
</defs>
<g fill="none" fill-rule="evenodd">
<g transform="translate(-174 -47)">
<g transform="translate(68 47)">
<g transform="translate(106)">
<g transform="translate(190 271)">
<mask id="j" fill="white">
<use xlink:href="#f"/>
</mask>
<path d="m44.895 35.069c4.2918-4.8671 3.7891-12.26-1.1236-16.512-2.1663-1.8763-4.9501-2.9036-7.8274-2.8901-0.21391 0-0.41336 0.051827-0.62472 0.061096 0.3972-1.1562 0.60813-2.3676 0.62472-3.5887 0-6.4943-5.3137-11.759-11.868-11.759-6.5542 0-11.868 5.2644-11.868 11.759 0.016585 1.2211 0.22752 2.4325 0.62386 3.5887-0.21093 0-0.40996-0.061096-0.62386-0.061096-6.5227-0.030759-11.836 5.1835-11.868 11.646-0.013609 2.8509 1.0236 5.6091 2.9169 7.7559-4.0706 4.597-3.8572 11.532 0.48906 15.875-4.5882 4.6379-4.5129 12.083 0.16798 16.629 2.2152 2.151 5.1921 3.3574 8.294 3.3611h23.736c6.5542-0.007163 11.862-5.2779 11.854-11.772-0.0038274-3.0734-1.2214-6.0233-3.3923-8.2181 4.3462-4.3429 4.5597-11.278 0.48906-15.875" fill="#005960" mask="url(#j)"/>
</g>
<g transform="translate(112 232)">
<mask id="i" fill="white">
<use xlink:href="#d"/>
</mask>
<path d="m77.696 63.591c7.4528-8.8905 6.5795-22.395-1.9502-30.163-3.7626-3.4268-8.5958-5.3035-13.593-5.2786-0.37087 0-0.71707 0.094284-1.0838 0.11185 0.68912-2.1128 1.0551-4.3246 1.0838-6.5557 0-11.863-9.2266-21.48-20.608-21.48-11.381 0-20.608 9.6165-20.608 21.48 0.028782 2.2311 0.39472 4.4429 1.0842 6.5557-0.36717 0-0.71337-0.11185-1.0842-0.11185-11.327-0.05657-20.553 9.4682-20.607 21.274-0.024259 5.2083 1.7767 10.246 5.0643 14.168-7.0688 8.3977-6.6979 21.065 0.84947 28.998-7.9672 8.4718-7.8368 22.072 0.29111 30.376 3.8465 3.9295 9.0161 6.1336 14.402 6.14h41.216c11.381-0.013285 20.598-9.6414 20.585-21.505-0.0065787-5.6137-2.1208-11.002-5.8908-15.011 7.547-7.9331 7.9178-20.6 0.84906-28.998" fill="#005960" mask="url(#i)"/>
</g>
<g transform="translate(109 111)">
<path d="m73.13 31.809 20.517 13.504-6.3325 16.369c-0.090959 0.23081-0.20946 0.44604-0.31085 0.67053-0.4502-0.02822-0.90083-0.055597-1.3577-0.055597-0.074269 0-0.14603 0.0084237-0.22197 0.0084237-0.072183 0-0.14186-0.0084237-0.21363-0.0084237-5.4926 0-10.213 3.4112-13.079 8.0017-3.3208-0.25187-6.622-1.0652-9.6846-2.5364-2.087-1.0033-3.9062-2.1948-4.5638-3.4887-2.1955-11.61 15.246-32.464 15.246-32.464" fill="#FAB08A"/>
<path d="m47.032 36.043s-2.5126 24.04 2.5443 39.347c-2.3478 2.0604-10.97 11.388-13.682-0.70464-2.7112-12.092 3.0438-42.876 3.0438-42.876l8.0937 4.2338z" fill="#FAB08A"/>
<polygon points="59.343 34.341 64.169 37.475 62.448 41.113 57.266 38.809" fill="#1C2C57"/>
<path d="m62.186 38.716c-0.48442 1.1124-0.51821 2.1712-0.076355 2.3675 0.43977 0.19417 1.1887-0.54881 1.6727-1.6607 0.48442-1.1124 0.51821-2.1733 0.078441-2.3675-0.44186-0.19669-1.1908 0.54838-1.6748 1.6607" fill="#1C2C57"/>
<path d="m1.0938 16.61c-0.0025034-0.046752-0.012934-0.091818-0.017107-0.13857 0.9075-2.0878 2.5085-5.4055 4.6677-8.4566 3.4877-4.9296 4.4837-7.3956 4.4837-7.3956l49.851 32.935-3.2274 6.151-55.763-20.803c0.050904-0.76866 0.065507-1.5348 0.0045897-2.2929" fill="#004060"/>
<polygon points="77.656 70.308 79.45 81.61 63.588 81.61 62.448 67.761" fill="#F79C82"/>
<path d="m36.692 98.353s-18.736-6.0246-24.607-14.122c-5.8731-8.1003 4.0652-52.421 4.0652-52.421l-1.2843-7.9781c-0.72308-4.4898 2.6883-8.5737 7.1953-8.6145l5.0061-0.044646c2.0833-0.019374 3.4873 2.1434 2.6416 4.0649l-6.5841 14.953s-4.9401 33.572 1.9802 36.119c8.2522 2.9677 17.594 3.6824 17.594 3.6824l-6.0066 24.362z" fill="#FAB08A"/>
<path d="m71.891 70.308 4.82-10.79-3.1322-1.9855c-2.3119-1.4666-3.3225-4.3445-2.443-6.9538l2.6666-7.9044c0.3872-1.1473-0.21863-2.4046-1.3606-2.7802-2.8539-0.93925-7.5483-3.4626-7.3418-9.8722 0-2.8068 2.2719-3.9566 4.1178-4.4275 1.0903-0.2784 2.221-0.34958 3.3421-0.25398 2.2694 0.19375 7.8104 0.83774 11.096 2.68 3.2945 1.8477 5.4087 2.6034 10.163 10.981 3.1977 5.6342 1.7954 14.458-0.98761 21.081-2.4959 5.9328-8.8643 9.2484-15.175 10.226h-5.765z" fill="#083B5E"/>
<path d="m79.304 54.493c0.57329 1.6991-0.58748 3.9495-2.5927 5.0256-2.0069 1.0757-4.0986 0.56776-4.6719-1.1317-0.57538-1.6991 0.58581-3.9495 2.5932-5.0256 2.0044-1.0757 4.0965-0.56776 4.6714 1.1317" fill="#FAB08A"/>
<path d="m45.45 160.95h45.492v-58.918c0-12.906-9.733-23.689-22.461-24.889l-31.637-3.8661s-3.7201 5.7492-14.086 19.105c12.459 7.7688 26.877 11.349 26.877 11.349l-4.1854 57.219z" fill="#CDEAE6"/>
<path d="m8.7309 11.149c-2.4471 5.1237-5.7675 8.6272-7.4173 7.8265-1.6477-0.80236-1.0005-5.6081 1.4466-10.73 2.4471-5.1237 5.7654-8.6272 7.4148-7.8265 1.6498 0.80278 1.0005 5.6064-1.4441 10.73" fill="#00C9C3"/>
<path d="m48.999 26.235-0.42308 0.20259c-1.4825 0.71939-3.1848 0.82637-4.7461 0.30115l-0.28122-0.093503c-2.5673-0.8647-4.5721-2.9167-5.3929-5.5213-0.36592-1.157 0.64088-2.2824 1.8188-2.0348l3.1514 0.66842c1.2284 0.26029 2.3028 0.99905 2.9925 2.0583l2.8806 4.4191z" fill="#FAB08A"/>
</g>
<g transform="translate(127 234)">
<g transform="translate(38.189 10.563)">
<mask id="h" fill="white">
<use xlink:href="#c"/>
</mask>
<path d="m0.39459 55.929s6.2136-44.671 35.455-55.707c28.551 24.759 6.2622 61.367 6.2622 61.367l-31.504 22.982-10.213-28.642z" fill="#59C09C" mask="url(#h)"/>
</g>
<g transform="translate(48.152 10.563)">
<mask id="g" fill="white">
<use xlink:href="#b"/>
</mask>
<path d="m0.83078 24.5 12.59 15.362 11.78-39.365c0.22872-0.091267 0.45536-0.18718 0.68616-0.27465 0.11291 0.097605 0.21751 0.1969 0.32834 0.2945l-6.3095 21.083 16.626-7.6837c0.075133 0.15887 0.1457 0.31817 0.21917 0.47704l0.1897 0.42464-17.413 8.0475-10.515 35.136 29.601-12.539c-0.1046 0.40901-0.21129 0.81464-0.3217 1.2122l-29.648 12.558-7.4668 24.949-0.53174 0.38873-0.32876-0.92196 12.764-42.651-12.746-15.554c0.16313-0.31521 0.32876-0.62999 0.49646-0.94478" fill="#006769" mask="url(#g)"/>
</g>
<mask id="l" fill="white">
<use xlink:href="#a"/>
</mask>
<path d="m12.906 75.404s-26.021-44.749-3.3121-75.034c61.829 18.335 43.948 80.183 43.948 80.183l-40.636-5.149z" fill="#004966" mask="url(#l)"/>
<g transform="translate(.4151)">
<mask id="k" fill="white">
<use xlink:href="#e"/>
</mask>
<path d="m9.179 0.36959c0.21502 0.063802 0.42465 0.13014 0.63884 0.19479l16.747 58.851 20.322-32.129c0.21917 0.36295 0.43295 0.72633 0.64299 1.0914l-20.551 32.491 4.8322 16.982-1.2108-0.15296-9.6336-33.854v4.225e-4l-20.742-6.6933c-0.04151-0.41028-0.079284-0.8214-0.11291-1.2338l20.481 6.608-11.831-41.576c0.13989-0.1931 0.27314-0.38788 0.41801-0.58014" fill="#59C09C" mask="url(#k)"/>
</g>
</g>
<polygon points="112 315 238 315 238 306 112 306" fill="#00756F"/>
<path d="m11.671 28.621-10.293-10.293c-1.8381-1.8381-1.8381-4.8191 0-6.6573l10.293-10.293c1.8381-1.8381 4.8191-1.8381 6.6573 0l10.293 10.293c1.8381 1.8381 1.8381 4.8191 0 6.6573l-10.293 10.293c-1.8381 1.8381-4.8191 1.8381-6.6573 0" fill="#009792"/>
<path d="m168.27 95h-20.531c-5.9286 0-10.734-4.8059-10.734-10.735v-20.53c0-5.929 4.8059-10.735 10.734-10.735h20.531c5.9286 0 10.735 4.8059 10.735 10.735v20.53c0 5.929-4.8063 10.735-10.735 10.735" fill="#00C9C3"/>
<path d="m76 94.5c0-6.3511 5.1489-11.5 11.5-11.5s11.5 5.1489 11.5 11.5c0 6.3511-5.1489 11.5-11.5 11.5s-11.5-5.1489-11.5-11.5" fill="#009792"/>
</g>
</g>
</g>
</g>
</svg>
